X: 49
T: No_39_Klokali_Song_(a).krn
N: Derived from No_39_Klokali_Song_(a).krn
%%abc-version 2.0
%%abcx-abcm2ps-target-version 5.9.1 (29 Sep 2008)
%%abc-creator hum2abc beta
%%abcx-conversion-date 2019/03/15 08:36:13
%%humdrum-veritas 203810837
%%humdrum-veritas-data 3717292995
%%linebreak <none>
%%barnumbers 0
L: 1/8
M: 2/4
K: Db clef=bass
[K:clef=bass][M:2/4]z2z z/ A,/ | 
A,2F, z/ A,/ | 
A, z A,B, | 
A,4- | 
A,2z2 | 
B,/A,3/ A,A, | 
A,2G,G, | 
G,2z B, | 
A,2F,/ z/ A, | 
A, zA,2 | 
A,2A,A, | 
A,2G,G, | 
G, zA,2 | 
A,2F,/ z/ B, | 
B,/A,3/A,2- | 
A,2z2 | 
B,/A,3/ G,A, | 
G,G, G, z | 
A,2G,/ z/ A, | 
A, z G,A, | 
A,2G,A, ||  
[M:3/8]A,A,A, ||  
[M:5/8]G,G,G,z2 ||  
[M:2/4]A,2G,A, | 
A, z G,A, | 
A,4- | 
A,2z2 |]  



